domfk/img/social/whatssap.svg

<svg width="22" height="25" viewBox="0 0 22 25" fill="none" xmlns="http://www.w3.org/2000/svg">
<path d="M13.2921 0H8.70788C3.90638 0 0 3.90546 0 8.70604V12.8356C0 16.4106 2.19679 19.6235 5.5 20.9321V23.6092C5.5 23.7907 5.60679 23.9548 5.77271 24.0281C5.83229 24.0547 5.89554 24.0675 5.95833 24.0675C6.06971 24.0675 6.18017 24.0268 6.26587 23.9488L8.92375 21.5417H13.2921C18.0936 21.5417 22 17.6362 22 12.8356V8.70604C22 3.90546 18.0936 0 13.2921 0ZM21.0833 12.8356C21.0833 17.1307 17.5885 20.625 13.2921 20.625H8.74683C8.63317 20.625 8.52362 20.6672 8.43929 20.7437L6.41667 22.5757V20.6145C6.41667 20.4201 6.29429 20.2469 6.11096 20.1827C3.00438 19.0841 0.916667 16.1315 0.916667 12.8356V8.70604C0.916667 4.411 4.41192 0.916667 8.70788 0.916667H13.2921C17.5885 0.916667 21.0833 4.411 21.0833 8.70604V12.8356Z" fill="#FFC844"/>
<path d="M17.0571 13.976L14.2402 12.1463C13.9322 11.946 13.5655 11.8782 13.2066 11.9524C12.8473 12.0281 12.5384 12.2403 12.3381 12.5496L12.2056 12.7531C10.9865 12.3503 9.64218 11.8356 8.83734 9.50585L9.17055 9.21618C9.74255 8.71889 9.80259 7.84897 9.3053 7.27606L7.10164 4.74101C6.93572 4.54989 6.64605 4.53018 6.45493 4.69564L5.07122 5.89831C3.85755 6.95339 4.42451 8.51401 4.61105 9.02689C4.6193 9.04981 4.62939 9.07181 4.6413 9.09335C4.68943 9.17951 5.83847 11.2301 7.69426 13.1203C9.55738 15.0182 12.9211 16.7709 13.0242 16.8218C13.4083 17.0711 13.8405 17.1907 14.2681 17.1907C15.0189 17.1907 15.755 16.8227 16.1941 16.148L17.1923 14.6108C17.3298 14.3976 17.2693 14.1139 17.0571 13.976ZM15.425 15.6484C15.012 16.2846 14.1586 16.4652 13.4848 16.0307C13.4514 16.0133 10.1097 14.273 8.3483 12.4786C6.70197 10.8016 5.60884 8.93843 5.45989 8.67856C5.09689 7.6606 5.16105 7.03497 5.67255 6.59039L6.71068 5.68839L8.61368 7.87739C8.7828 8.07172 8.76309 8.35589 8.56968 8.5241L8.0073 9.01268C7.87026 9.13185 7.81618 9.32022 7.8698 9.49347C8.82864 12.6092 10.6931 13.2211 12.0544 13.668L12.2528 13.7335C12.4513 13.8004 12.6686 13.7239 12.7822 13.5488L13.1072 13.0483C13.1741 12.9447 13.2768 12.8746 13.3959 12.8494C13.5156 12.8237 13.6375 12.8476 13.7411 12.9149L16.1739 14.4948L15.425 15.6484Z" fill="#FFC844"/>
<path d="M12.0462 7.44666C11.8024 7.37654 11.549 7.51816 11.4797 7.76199C11.4105 8.00537 11.5517 8.25883 11.7951 8.32804C12.478 8.52237 13.022 9.06733 13.2145 9.7507C13.2714 9.95237 13.4552 10.0848 13.6555 10.0848C13.6967 10.0848 13.7384 10.0793 13.7801 10.0679C14.0235 9.99912 14.1656 9.74612 14.0968 9.50229C13.8186 8.51504 13.0326 7.72716 12.0462 7.44666Z" fill="#FFC844"/>
<path d="M15.5344 10.1836C15.5757 10.1836 15.6174 10.1781 15.6591 10.1666C15.9029 10.0979 16.0446 9.84443 15.9758 9.60106C15.435 7.68385 13.9092 6.15485 11.9934 5.60943C11.75 5.53931 11.4965 5.68185 11.4273 5.92522C11.3581 6.1686 11.4993 6.42206 11.7427 6.49127C13.3546 6.9496 14.6384 8.23706 15.0935 9.84993C15.1508 10.0516 15.3342 10.1836 15.5344 10.1836Z" fill="#FFC844"/>
<path d="M11.7955 3.47498C11.5517 3.40485 11.2982 3.54648 11.229 3.79077C11.1598 4.03415 11.301 4.2876 11.5444 4.35681C14.2756 5.13369 16.4513 7.31444 17.2222 10.0475C17.279 10.2491 17.4628 10.3816 17.6631 10.3816C17.7043 10.3816 17.7461 10.3761 17.7878 10.3646C18.0311 10.2959 18.1732 10.0424 18.1045 9.79906C17.2479 6.76169 14.8306 4.33894 11.7955 3.47498Z" fill="#FFC844"/>
</svg>

<svg width="22" height="25" fill="none" xmlns="http://www.w3.org/2000/svg"><path d="M13.292 0H8.708C3.906 0 0 3.905 0 8.706v4.13a8.723 8.723 0 005.5 8.096v2.677a.458.458 0 00.766.34l2.658-2.407h4.368c4.802 0 8.708-3.906 8.708-8.706v-4.13C22 3.906 18.094 0 13.292 0zm7.791 12.836c0 4.295-3.494 7.789-7.79 7.789H8.746a.457.457 0 00-.308.119l-2.022 1.832v-1.962a.457.457 0 00-.306-.431 7.806 7.806 0 01-5.194-7.347v-4.13c0-4.295 3.495-7.79 7.79-7.79h4.585c4.296 0 7.791 3.495 7.791 7.79v4.13z" fill="#FFC844"/><path d="M17.057 13.976l-2.817-1.83a1.373 1.373 0 00-1.902.404l-.132.203c-1.22-.403-2.564-.917-3.369-3.247l.334-.29a1.377 1.377 0 00.134-1.94L7.102 4.741a.459.459 0 00-.647-.045L5.07 5.898c-1.213 1.055-.646 2.616-.46 3.129a.456.456 0 00.03.066 20.944 20.944 0 003.053 4.027c1.863 1.898 5.227 3.65 5.33 3.702a2.294 2.294 0 003.17-.674l.998-1.537a.46.46 0 00-.135-.635zm-1.632 1.672c-.413.637-1.266.817-1.94.383-.034-.018-3.375-1.758-5.137-3.552a20.412 20.412 0 01-2.888-3.8c-.363-1.018-.299-1.644.213-2.089l1.038-.902 1.903 2.19a.452.452 0 01-.044.646l-.563.489a.458.458 0 00-.137.48c.959 3.116 2.823 3.728 4.184 4.175l.199.066a.457.457 0 00.53-.185l.324-.5a.453.453 0 01.634-.134l2.433 1.58-.749 1.153zm-3.379-8.201a.457.457 0 10-.25.881c.682.194 1.226.74 1.418 1.423a.459.459 0 00.883-.249 2.996 2.996 0 00-2.05-2.055z" fill="#FFC844"/><path d="M15.534 10.184a.458.458 0 00.441-.583 5.82 5.82 0 00-3.982-3.992.458.458 0 10-.25.882 4.897 4.897 0 013.35 3.359.46.46 0 00.441.334z" fill="#FFC844"/><path d="M11.796 3.475a.457.457 0 10-.252.882 8.297 8.297 0 015.678 5.69.459.459 0 00.883-.248 9.22 9.22 0 00-6.31-6.324z" fill="#FFC844"/></svg>
